assets/img/icons/duotone-icons/Tools/Hummer#2.svg

<?xml version="1.0" encoding="UTF-8"?>
<svg width="24px" height="24px" viewBox="0 0 24 24" version="1.1" xmlns="http://www.w3.org/2000/svg" xmlns:xlink="http://www.w3.org/1999/xlink">
    <!-- Generator: Sketch 52.2 (67145) - http://www.bohemiancoding.com/sketch -->
    <title>Stockholm-icons / Tools / Hummer#2</title>
    <desc>Created with Sketch.</desc>
    <g id="Stockholm-icons-/-Tools-/-Hummer#2" stroke="none" stroke-width="1" fill="none" fill-rule="evenodd">
        <rect id="bound" x="0" y="0" width="24" height="24"></rect>
        <path d="M3.51471863,18.6568542 L13.4142136,8.75735931 C13.8047379,8.36683502 14.4379028,8.36683502 14.8284271,8.75735931 L16.2426407,10.1715729 C16.633165,10.5620972 16.633165,11.1952621 16.2426407,11.5857864 L6.34314575,21.4852814 C5.95262146,21.8758057 5.31945648,21.8758057 4.92893219,21.4852814 L3.51471863,20.0710678 C3.12419433,19.6805435 3.12419433,19.0473785 3.51471863,18.6568542 Z" id="Rectangle-2" fill="#335EEA" opacity="0.3"></path>
        <path d="M9.87867966,6.63603897 L13.4142136,3.10050506 C13.8047379,2.70998077 14.4379028,2.70998077 14.8284271,3.10050506 L21.8994949,10.1715729 C22.2900192,10.5620972 22.2900192,11.1952621 21.8994949,11.5857864 L18.363961,15.1213203 C17.9734367,15.5118446 17.3402718,15.5118446 16.9497475,15.1213203 L9.87867966,8.05025253 C9.48815536,7.65972824 9.48815536,7.02656326 9.87867966,6.63603897 Z" id="Rectangle-77" fill="#335EEA"></path>
        <path d="M17.3033009,4.86827202 L18.0104076,4.16116524 C18.2056698,3.96590309 18.5222523,3.96590309 18.7175144,4.16116524 L20.8388348,6.28248558 C21.0340969,6.47774772 21.0340969,6.79433021 20.8388348,6.98959236 L20.131728,7.69669914 C19.9364658,7.89196129 19.6198833,7.89196129 19.4246212,7.69669914 L17.3033009,5.5753788 C17.1080387,5.38011665 17.1080387,5.06353416 17.3033009,4.86827202 Z" id="Rectangle" fill="#335EEA" opacity="0.3"></path>
    </g>
</svg>

<svg width="24" height="24" viewBox="0 0 24 24" xmlns="http://www.w3.org/2000/svg"><g fill="none" fill-rule="evenodd"><path d="M0 0h24v24H0z"/><path d="M3.515 18.657l9.9-9.9a1 1 0 011.413 0l1.415 1.415a1 1 0 010 1.414l-9.9 9.9a1 1 0 01-1.414 0L3.515 20.07a1 1 0 010-1.414z" fill="#335EEA" opacity=".3"/><path d="M9.879 6.636l3.535-3.535a1 1 0 011.414 0l7.071 7.07a1 1 0 010 1.415l-3.535 3.535a1 1 0 01-1.414 0l-7.071-7.07a1 1 0 010-1.415z" fill="#335EEA"/><path d="M17.303 4.868l.707-.707a.5.5 0 01.708 0l2.12 2.121a.5.5 0 010 .708l-.706.707a.5.5 0 01-.707 0l-2.122-2.122a.5.5 0 010-.707z" fill="#335EEA" opacity=".3"/></g></svg>
